public/avatar/body/101.svg

<svg xmlns:xlink="http://www.w3.org/1999/xlink" height="82" width="84.85" xmlns="http://www.w3.org/2000/svg"><g transform="translate(37.4 42.25)"><use height="38" transform="translate(-11.95 -17.45)" width="32.05" xlink:href="#a"/><use height="38.95" transform="translate(-12.45 -17.95)" width="33.05" xlink:href="#b"/><use height="22.2" transform="translate(-13.5 -1.15)" width="35.45" xlink:href="#c"/></g><defs><path d="M27.35 7.4q2.15 4.15 3.55 8.75 1.45 4.7 1.15 9.5-.35 4.95-4.2 8.1-3.8 3.2-8.75 4.05l-2.6.2q-3.6 0-7.05-1.15-4.65-1.6-7.1-5.5Q-.2 27.4.05 23q.2-4.4 2-9.3Q3.85 8.75 7 5.05 10.1 1.3 14.7.1l1.8-.1q1.9.05 3.7.8 4.75 2.05 7.15 6.6" fill="#ffe3c2" fill-rule="evenodd" transform="translate(-.05)" id="d"/><path d="M27.35 7.4Q24.95 2.85 20.2.8 17.55-.3 14.7.1 10.1 1.3 7 5.05q-3.15 3.7-4.95 8.65-1.8 4.9-2 9.3-.25 4.4 2.3 8.35 2.45 3.9 7.1 5.5 4.65 1.55 9.65.95 4.95-.85 8.75-4.05 3.85-3.15 4.2-8.1.3-4.8-1.15-9.5-1.4-4.6-3.55-8.75Z" fill="none" stroke="#242424" stroke-linecap="round" stroke-linejoin="round" transform="translate(.45 .5)" id="e"/><use height="38" width="32.05" xlink:href="#d" id="a"/><use height="38.95" width="33.05" xlink:href="#e" id="b"/><g id="c"><path d="M34.55 5.65Q34.2 2.6 33.2 1.6L32.05.75l-1.45.85q-1.7 1.05-2.85 2.5l-2.4 2.7-2.2 2.7q-2.1 1.95-5.4 1.95-3.35 0-5.35-1.85-1.7-2.15-2.45-2.8-2-3-5.05-4.85-1.95-1.15-3.45.5-.95 1.1-.6 4.9.3 3.65 1.7 5.7.7 1.05 1.25 2.95.55 1.8 1.05 2.45.8 1.1 4.75 2l8.05.95v.05l.05-.05 3.6-.3.55-.1 1.05.05 3.95-.45q1.65-.3 3.35-1.5.9-.65 1.45-4.3l2.45-4.35q.85-1.6.45-4.8Z" fill="none" stroke="#000" stroke-linecap="round" stroke-linejoin="round" stroke-width="1.5"/><path d="m11.85 5.65 2.4-2.7Q15.4 1.5 17.1.45 18.2-.2 18.7 0l1.4 1.2q.9.9.7 4.1-.15 3.1-1.1 4.85-2.15 4.1-1.8 4.85l-1.6.5q-4.1 4.7-12.1 4.75l-.05.05v-.05l-8.05-.95q-3.95-.9-4.75-2-.5-.65-1.05-2.45-.55-1.9-1.25-2.95-.95-1.4-1.55-5.15-.7-4.2.45-5.45Q-10.4-.25-8.6.8q3.05 1.85 5.05 4.85.75.65 2.45 2.8 2 1.85 5.35 1.85 3.3 0 5.4-1.95l2.2-2.7" fill="#fff" fill-rule="evenodd" transform="translate(13.5 1.15)"/><path d="M18.95 3.3q2.75-.85 2.15 2.5-.5 2.7-2.3 5.55-.4.65-.85 3.5-.35 2.5-1.25 3.1-1.7 1.2-3.35 1.5l-3.95.45-4.25-.25q.9-.25 1.45-2 .55-2 .85-2.65l4.7-8q.95-1.85 6.8-3.7" fill="#dbdbdb" fill-rule="evenodd" transform="translate(13.5 1.15)"/><path d="M11.2 19.3q3.9-2.85 4.5-4.5l2.4-5.5-1.4 6.65q-.6 2-1 1.85l-4.5 1.5" fill="#ba9620" fill-rule="evenodd" transform="translate(13.5 1.15)"/><path d="m-2.55 19.2-4.85-1.75q-.25 0-.9-2L-9.65 8.8l2.35 5.5q.65 1.65 4.75 4.9" fill="#ffce2c" fill-rule="evenodd" transform="translate(13.5 1.15)"/><path d="M-8.05 16.95q3.65 2.75 12.5 2.75 8.9 0 11.65-2.25" fill="none" stroke="#b5b5b5" stroke-linecap="round" stroke-linejoin="round" transform="translate(13.5 1.15)"/><path d="m13.1 4.4 2.1-2.85 4.5 5.5-6.6-2.65m-18.15-.25-6.3 2.35 3.8-5 2.5 2.65" fill-rule="evenodd" transform="translate(13.5 1.15)"/><path d="M-10.35 0q.8-.85 4.3 3l4.55 5q2.45 2.15 6.15 2.15 3.45 0 6.6-3.65l3.9-4.85Q17.15 0 18.8 0" fill="none" stroke="#a1a1a1" stroke-linecap="round" stroke-linejoin="round" transform="translate(13.5 1.15)"/><path d="m15.7 1.95 4.4 3.75M-7.8 1.95l-4.35 3.75" fill="none" stroke="#fff" stroke-linecap="round" stroke-linejoin="round" transform="translate(13.5 1.15)"/><path d="m6.1 9.85-.3 3.1" fill="none" stroke="#fff" stroke-linecap="round" stroke-linejoin="round" stroke-width="1.5"/><path d="M-4.05 8.8q-1.25 0-1.3 1.9-.05 1.85 1.3 1.85 1.45 0 1.55-1.85.1-1.9-1.55-1.9Z" fill="none" stroke="#fff" stroke-linecap="round" stroke-linejoin="round" transform="translate(13.5 1.15)"/><path d="m-6.35 5.65-.7 3.3q0 1.25.9 4.35-2.5-2.5-2.65-4.25-.05-.9 2.45-3.4m20.8 0 1.35 1.3q1.1 1.15 1.05 2.1-.15 1.75-2.65 4.25.9-3.1.9-4.35l-.65-3.3" fill="#de0000" fill-rule="evenodd" transform="translate(13.5 1.15)"/><path d="m-9.25 1-3 3.25m29.2-3.5 4 3.5" fill="none" stroke="#000" stroke-linecap="round" stroke-linejoin="round" transform="translate(13.5 1.15)"/><path d="m1.3 12.5 2.65-1.2 2.2 1.5-2.5 1-2.35-1.3" fill-rule="evenodd" transform="translate(13.5 1.15)"/><path d="M11.55 11.35H8.6q-.3.35-.1 1.4.2 1.05.7.95.65-.1 1.55.35 1.05.55 1.05 1.5 0 1.35-2.35 1.5" fill="none" stroke="#000" stroke-linecap="round" stroke-linejoin="round" stroke-width="1.5"/></g></defs></svg>

<?xml version="1.0" encoding="UTF-8" standalone="no"?>
<svg xmlns:xlink="http://www.w3.org/1999/xlink" height="82.0px" width="84.85px" xmlns="http://www.w3.org/2000/svg">
  <g transform="matrix(1.0, 0.0, 0.0, 1.0, 37.4, 42.25)">
    <use height="38.0" transform="matrix(1.0, 0.0, 0.0, 1.0, -11.95, -17.45)" width="32.05" xlink:href="#sprite0"/>
    <use height="38.95" transform="matrix(1.0, 0.0, 0.0, 1.0, -12.45, -17.95)" width="33.05" xlink:href="#sprite1"/>
    <use height="22.2" transform="matrix(1.0, 0.0, 0.0, 1.0, -13.5, -1.15)" width="35.45" xlink:href="#shape2"/>
  </g>
  <defs>
    <g id="sprite0" transform="matrix(1.0, 0.0, 0.0, 1.0, -0.05, 0.0)">
      <use height="38.0" transform="matrix(1.0, 0.0, 0.0, 1.0, 0.05, 0.0)" width="32.05" xlink:href="#shape0"/>
    </g>
    <g id="shape0" transform="matrix(1.0, 0.0, 0.0, 1.0, -0.05, 0.0)">
      <path d="M27.35 7.4 Q29.5 11.55 30.9 16.15 32.35 20.85 32.05 25.65 31.7 30.6 27.85 33.75 24.05 36.95 19.1 37.8 L16.5 38.0 Q12.9 38.0 9.45 36.85 4.8 35.25 2.35 31.35 -0.2 27.4 0.05 23.0 0.25 18.6 2.05 13.7 3.85 8.75 7.0 5.05 10.1 1.3 14.7 0.1 L16.5 0.0 Q18.4 0.05 20.2 0.8 24.95 2.85 27.35 7.4" fill="#ffe3c2" fill-rule="evenodd" stroke="none"/>
    </g>
    <g id="sprite1" transform="matrix(1.0, 0.0, 0.0, 1.0, 0.45, 0.5)">
      <use height="38.95" transform="matrix(1.0, 0.0, 0.0, 1.0, -0.45, -0.5)" width="33.05" xlink:href="#shape1"/>
    </g>
    <g id="shape1" transform="matrix(1.0, 0.0, 0.0, 1.0, 0.45, 0.5)">
      <path d="M27.35 7.4 Q24.95 2.85 20.2 0.8 17.55 -0.3 14.7 0.1 10.1 1.3 7.0 5.05 3.85 8.75 2.05 13.7 0.25 18.6 0.05 23.0 -0.2 27.4 2.35 31.35 4.8 35.25 9.45 36.85 14.1 38.4 19.1 37.8 24.05 36.95 27.85 33.75 31.7 30.6 32.05 25.65 32.35 20.85 30.9 16.15 29.5 11.55 27.35 7.4 Z" fill="none" stroke="#242424" stroke-linecap="round" stroke-linejoin="round" stroke-width="1.0"/>
    </g>
    <g id="shape2" transform="matrix(1.0, 0.0, 0.0, 1.0, 13.5, 1.15)">
      <path d="M21.05 4.5 Q20.7 1.45 19.7 0.45 L18.55 -0.4 17.1 0.45 Q15.4 1.5 14.25 2.95 L11.85 5.65 9.65 8.35 Q7.55 10.3 4.25 10.3 0.9 10.3 -1.1 8.45 -2.8 6.3 -3.55 5.65 -5.55 2.65 -8.6 0.8 -10.55 -0.35 -12.05 1.3 -13.0 2.4 -12.65 6.2 -12.35 9.85 -10.95 11.9 -10.25 12.95 -9.7 14.85 -9.15 16.65 -8.65 17.3 -7.85 18.4 -3.9 19.3 L4.15 20.25 4.15 20.3 4.2 20.25 7.8 19.95 8.35 19.85 9.4 19.9 13.35 19.45 Q15.0 19.15 16.7 17.95 17.6 17.3 18.15 13.65 L20.6 9.3 Q21.45 7.7 21.05 4.5 Z" fill="none" stroke="#000000" stroke-linecap="round" stroke-linejoin="round" stroke-width="1.5"/>
      <path d="M11.85 5.65 L14.25 2.95 Q15.4 1.5 17.1 0.45 18.2 -0.2 18.7 0.0 L20.1 1.2 Q21.0 2.1 20.8 5.3 20.65 8.4 19.7 10.15 17.55 14.25 17.9 15.0 L16.3 15.5 Q12.2 20.2 4.2 20.25 L4.15 20.3 4.15 20.25 -3.9 19.3 Q-7.85 18.4 -8.65 17.3 -9.15 16.65 -9.7 14.85 -10.25 12.95 -10.95 11.9 -11.9 10.5 -12.5 6.75 -13.2 2.55 -12.05 1.3 -10.4 -0.25 -8.6 0.8 -5.55 2.65 -3.55 5.65 -2.8 6.3 -1.1 8.45 0.9 10.3 4.25 10.3 7.55 10.3 9.65 8.35 L11.85 5.65" fill="#ffffff" fill-rule="evenodd" stroke="none"/>
      <path d="M18.95 3.3 Q21.7 2.45 21.1 5.8 20.6 8.5 18.8 11.35 18.4 12.0 17.95 14.85 17.6 17.35 16.7 17.95 15.0 19.15 13.35 19.45 L9.4 19.9 5.15 19.65 Q6.05 19.4 6.6 17.65 7.15 15.65 7.45 15.0 L12.15 7.0 Q13.1 5.15 18.95 3.3" fill="#dbdbdb" fill-rule="evenodd" stroke="none"/>
      <path d="M11.2 19.3 Q15.1 16.45 15.7 14.8 L18.1 9.3 16.7 15.95 Q16.1 17.95 15.7 17.8 L11.2 19.3" fill="#ba9620" fill-rule="evenodd" stroke="none"/>
      <path d="M-2.55 19.2 L-7.4 17.45 Q-7.65 17.45 -8.3 15.45 L-9.65 8.8 -7.3 14.3 Q-6.65 15.95 -2.55 19.2" fill="#ffce2c" fill-rule="evenodd" stroke="none"/>
      <path d="M-8.05 16.95 Q-4.4 19.7 4.45 19.7 13.35 19.7 16.1 17.45" fill="none" stroke="#b5b5b5" stroke-linecap="round" stroke-linejoin="round" stroke-width="1.0"/>
      <path d="M13.1 4.4 L15.2 1.55 19.7 7.05 13.1 4.4" fill="#000000" fill-rule="evenodd" stroke="none"/>
      <path d="M-5.05 4.15 L-11.35 6.5 -7.55 1.5 -5.05 4.15" fill="#000000" fill-rule="evenodd" stroke="none"/>
      <path d="M-10.35 0.0 Q-9.55 -0.85 -6.05 3.0 L-1.5 8.0 Q0.95 10.15 4.65 10.15 8.1 10.15 11.25 6.5 L15.15 1.65 Q17.15 0.0 18.8 0.0" fill="none" stroke="#a1a1a1" stroke-linecap="round" stroke-linejoin="round" stroke-width="1.0"/>
      <path d="M15.7 1.95 L20.1 5.7" fill="none" stroke="#ffffff" stroke-linecap="round" stroke-linejoin="round" stroke-width="1.0"/>
      <path d="M-7.8 1.95 L-12.15 5.7" fill="none" stroke="#ffffff" stroke-linecap="round" stroke-linejoin="round" stroke-width="1.0"/>
      <path d="M-7.4 8.7 L-7.7 11.8" fill="none" stroke="#ffffff" stroke-linecap="round" stroke-linejoin="round" stroke-width="1.5"/>
      <path d="M-4.05 8.8 Q-5.3 8.8 -5.35 10.7 -5.4 12.55 -4.05 12.55 -2.6 12.55 -2.5 10.7 -2.4 8.8 -4.05 8.8 Z" fill="none" stroke="#ffffff" stroke-linecap="round" stroke-linejoin="round" stroke-width="1.0"/>
      <path d="M-6.35 5.65 L-7.05 8.95 Q-7.05 10.2 -6.15 13.3 -8.65 10.8 -8.8 9.05 -8.85 8.15 -6.35 5.65" fill="#de0000" fill-rule="evenodd" stroke="none"/>
      <path d="M14.45 5.65 L15.8 6.95 Q16.9 8.1 16.85 9.05 16.7 10.8 14.2 13.3 15.1 10.2 15.1 8.95 L14.45 5.65" fill="#de0000" fill-rule="evenodd" stroke="none"/>
      <path d="M-9.25 1.0 L-12.25 4.25" fill="none" stroke="#000000" stroke-linecap="round" stroke-linejoin="round" stroke-width="1.0"/>
      <path d="M16.95 0.75 L20.95 4.25" fill="none" stroke="#000000" stroke-linecap="round" stroke-linejoin="round" stroke-width="1.0"/>
      <path d="M1.3 12.5 L3.95 11.3 6.15 12.8 3.65 13.8 1.3 12.5" fill="#000000" fill-rule="evenodd" stroke="none"/>
      <path d="M-1.95 10.2 L-4.9 10.2 Q-5.2 10.55 -5.0 11.6 -4.8 12.65 -4.3 12.55 -3.65 12.45 -2.75 12.9 -1.7 13.45 -1.7 14.4 -1.7 15.75 -4.05 15.9" fill="none" stroke="#000000" stroke-linecap="round" stroke-linejoin="round" stroke-width="1.5"/>
    </g>
  </defs>
</svg>
